X: 1657
T: The Piper's Despair
M:4/4
L:1/8
B:O'Neill's 1657
N:"collected by Hartnett"
K:G
DFGA BAFA | (3Bcd A>d (3Bcd A>F | D2F-D ADFD | (3Bcd A>d (3Bcd A>F |
| EFG>A BAFA | (3Bcd A>d(3Bcd A>F | D2FD A2FA | Beed Bee2 :|
|: e2 g-e bege | bege bege | defg adfd | adfd adfd |
| e2 g-e bege | bege bege | defg afdf | (3efg fd ecBG :|


